img/svg/detective.svg

<svg xmlns="http://www.w3.org/2000/svg" preserveAspectRatio="xMidYMid" width="45" height="42" viewBox="0 0 45 42"><defs><style>.cls-2 { fill: #9ba9b0; }</style></defs><path d="M35.645 16.942c1.615 2.59 2.492 5.599 2.492 8.709 0 3.037-.837 5.872-2.266 8.308l.013.001c1.334 0 2.583-.462 3.337-1.237.188-.193.494-.3.808-.3.162 0 .327.028.479.088.443.172.624.553.418.878-1.614 2.533-4.568 4.119-8.238 4.47-2.829 2.538-6.532 4.092-10.594 4.092-4.062 0-7.765-1.554-10.594-4.091-3.675-.349-6.633-1.935-8.249-4.471-.207-.326-.025-.706.419-.879.15-.058.313-.086.474-.086.316 0 .624.106.813.3.753.775 1.999 1.236 3.334 1.236l.025-.001c-1.429-2.437-2.265-5.272-2.265-8.308 0-3.105.882-6.117 2.497-8.709-4.767-.337-8.537-4.009-8.537-8.416 0-.552.447-1 1-1 .552 0 1 .448 1 1 0 3.522 3.252 6.472 7.249 6.472h.349v-3.976c0-6.273 5.56-11.036 12.464-11.036 6.904 0 12.521 4.763 12.521 11.036v3.976h.333c3.998 0 7.25-2.95 7.25-6.472 0-.552.447-1 1-1 .552 0 1 .448 1 1 0 4.405-3.767 8.076-8.532 8.416zm-13.551 23.009c2.678 0 5.175-.781 7.307-2.111-2.863-.285-5.532-1.255-7.313-2.685-1.78 1.429-4.444 2.398-7.303 2.683 2.132 1.331 4.63 2.113 7.309 2.113zm-9.772-4.051c.248.012.49.035.745.035 2.994 0 5.971-.897 7.769-2.34l1.252-1.004 1.252 1.005c1.797 1.442 4.774 2.339 7.768 2.339.26 0 .506-.023.758-.036.238-.235.462-.484.683-.735-1.632-.855-2.7-2.319-2.7-4.028 0-1.488-2.322-2.158-3.971-2.158-.317 0-1.123.59-1.556.906-.415.304-.845.618-1.298.858l-.936.497-.937-.497c-.453-.24-.884-.555-1.299-.859-.433-.316-1.237-.905-1.552-.905-1.649 0-3.971.67-3.971 2.158 0 1.706-1.066 3.168-2.695 4.024.223.253.448.503.688.74zm20.289-20.902v-3.054h-21.013v3.054h21.013zm-8.476 6.409c0 1.93 1.552 3.501 3.458 3.501 1.907 0 3.459-1.571 3.459-3.501 0-1.929-1.552-3.499-3.459-3.499-1.906 0-3.458 1.57-3.458 3.499zm-2.062-19.421c-5.452 0-9.844 3.366-10.41 8.014h20.882c-.573-4.648-5.02-8.014-10.472-8.014zm11.176 14.989h-2.448c1.359 1.001 2.251 2.606 2.251 4.432 0 3.038-2.443 5.501-5.459 5.501-3.015 0-5.458-2.463-5.458-5.501 0-1.826.893-3.431 2.251-4.432h-13.441c-1.867 2.486-2.894 5.527-2.894 8.676 0 2.914.864 5.623 2.339 7.886 1.158-.498 1.939-1.384 1.939-2.401 0-2.731 3.003-4.158 5.971-4.158 1.406 0 2.742 1.443 3.788 1.997 1.045-.554 2.382-1.997 3.79-1.997 2.967 0 5.971 1.427 5.971 4.158 0 1.02.784 1.908 1.946 2.404 1.477-2.263 2.342-4.974 2.342-7.889 0-3.154-1.021-6.191-2.888-8.676zm-17.14 6.852c-1.094 0-1.981-.858-1.981-1.915 0-1.058.887-1.916 1.981-1.916s1.981.858 1.981 1.916c0 1.057-.887 1.915-1.981 1.915z" id="path-1" class="cls-2" fill-rule="evenodd"/></svg>

<svg xmlns="http://www.w3.org/2000/svg" xmlns:xlink="http://www.w3.org/1999/xlink" preserveAspectRatio="xMidYMid" width="45" height="42" viewBox="0 0 45 42">
  <defs>
    <style>

      .cls-2 {
        fill: #9ba9b0;
      }
    </style>
  </defs>
  <path d="M35.645,16.942 C37.260,19.532 38.137,22.541 38.137,25.651 C38.137,28.688 37.300,31.523 35.871,33.959 C35.876,33.960 35.880,33.960 35.884,33.960 C37.218,33.960 38.467,33.498 39.221,32.723 C39.409,32.530 39.715,32.423 40.029,32.423 C40.191,32.423 40.356,32.451 40.508,32.511 C40.951,32.683 41.132,33.064 40.926,33.389 C39.312,35.922 36.358,37.508 32.688,37.859 C29.859,40.397 26.156,41.951 22.094,41.951 C18.032,41.951 14.329,40.397 11.500,37.860 C7.825,37.511 4.867,35.925 3.251,33.389 C3.044,33.063 3.226,32.683 3.670,32.510 C3.820,32.452 3.983,32.424 4.144,32.424 C4.460,32.424 4.768,32.530 4.957,32.724 C5.710,33.499 6.956,33.960 8.291,33.960 C8.299,33.960 8.307,33.959 8.316,33.959 C6.887,31.522 6.051,28.687 6.051,25.651 C6.051,22.546 6.933,19.534 8.548,16.942 C3.781,16.605 0.011,12.933 0.011,8.526 C0.011,7.974 0.458,7.526 1.011,7.526 C1.563,7.526 2.011,7.974 2.011,8.526 C2.011,12.048 5.263,14.998 9.260,14.998 C9.260,14.998 9.609,14.998 9.609,14.998 C9.609,14.998 9.609,11.022 9.609,11.022 C9.609,4.749 15.169,-0.014 22.073,-0.014 C28.977,-0.014 34.594,4.749 34.594,11.022 C34.594,11.022 34.594,14.998 34.594,14.998 C34.594,14.998 34.927,14.998 34.927,14.998 C38.925,14.998 42.177,12.048 42.177,8.526 C42.177,7.974 42.624,7.526 43.177,7.526 C43.729,7.526 44.177,7.974 44.177,8.526 C44.177,12.931 40.410,16.602 35.645,16.942 ZM22.094,39.951 C24.772,39.951 27.269,39.170 29.401,37.840 C26.538,37.555 23.869,36.585 22.088,35.155 C20.308,36.584 17.644,37.553 14.785,37.838 C16.917,39.169 19.415,39.951 22.094,39.951 ZM12.322,35.900 C12.570,35.912 12.812,35.935 13.067,35.935 C16.061,35.935 19.038,35.038 20.836,33.595 C20.836,33.595 22.088,32.591 22.088,32.591 C22.088,32.591 23.340,33.596 23.340,33.596 C25.137,35.038 28.114,35.935 31.108,35.935 C31.368,35.935 31.614,35.912 31.866,35.899 C32.104,35.664 32.328,35.415 32.549,35.164 C30.917,34.309 29.849,32.845 29.849,31.136 C29.849,29.648 27.527,28.978 25.878,28.978 C25.561,28.978 24.755,29.568 24.322,29.884 C23.907,30.188 23.477,30.502 23.024,30.742 C23.024,30.742 22.088,31.239 22.088,31.239 C22.088,31.239 21.151,30.742 21.151,30.742 C20.698,30.502 20.267,30.187 19.852,29.883 C19.419,29.567 18.615,28.978 18.300,28.978 C16.651,28.978 14.329,29.648 14.329,31.136 C14.329,32.842 13.263,34.304 11.634,35.160 C11.857,35.413 12.082,35.663 12.322,35.900 ZM32.611,14.998 C32.611,14.998 32.611,11.944 32.611,11.944 C32.611,11.944 11.598,11.944 11.598,11.944 C11.598,11.944 11.598,14.998 11.598,14.998 C11.598,14.998 32.611,14.998 32.611,14.998 ZM24.135,21.407 C24.135,23.337 25.687,24.908 27.593,24.908 C29.500,24.908 31.052,23.337 31.052,21.407 C31.052,19.478 29.500,17.908 27.593,17.908 C25.687,17.908 24.135,19.478 24.135,21.407 ZM22.073,1.986 C16.621,1.986 12.229,5.352 11.663,10.000 C11.663,10.000 32.545,10.000 32.545,10.000 C31.972,5.352 27.525,1.986 22.073,1.986 ZM33.249,16.975 C33.249,16.975 30.801,16.975 30.801,16.975 C32.160,17.976 33.052,19.581 33.052,21.407 C33.052,24.445 30.609,26.908 27.593,26.908 C24.578,26.908 22.135,24.445 22.135,21.407 C22.135,19.581 23.028,17.976 24.386,16.975 C24.386,16.975 10.945,16.975 10.945,16.975 C9.078,19.461 8.051,22.502 8.051,25.651 C8.051,28.565 8.915,31.274 10.390,33.537 C11.548,33.039 12.329,32.153 12.329,31.136 C12.329,28.405 15.332,26.978 18.300,26.978 C19.706,26.978 21.042,28.421 22.088,28.975 C23.133,28.421 24.470,26.978 25.878,26.978 C28.845,26.978 31.849,28.405 31.849,31.136 C31.849,32.156 32.633,33.044 33.795,33.540 C35.272,31.277 36.137,28.566 36.137,25.651 C36.137,22.497 35.116,19.460 33.249,16.975 ZM16.109,23.827 C15.015,23.827 14.128,22.969 14.128,21.912 C14.128,20.854 15.015,19.996 16.109,19.996 C17.203,19.996 18.090,20.854 18.090,21.912 C18.090,22.969 17.203,23.827 16.109,23.827 Z" id="path-1" class="cls-2" fill-rule="evenodd"/>
</svg>
